images/win.svg

<?xml version="1.0" encoding="UTF-8" standalone="no"?>
<svg width="17px" height="18px" viewBox="0 0 17 18" version="1.1" xmlns="http://www.w3.org/2000/svg" xmlns:xlink="http://www.w3.org/1999/xlink" xmlns:sketch="http://www.bohemiancoding.com/sketch/ns">
    <!-- Generator: Sketch 3.5 (25232) - http://www.bohemiancoding.com/sketch -->
    <title>win</title>
    <desc>Created with Sketch.</desc>
    <defs></defs>
    <g id="Landing" stroke="none" stroke-width="1" fill="none" fill-rule="evenodd" sketch:type="MSPage">
        <g id="notebook-main" sketch:type="MSArtboardGroup" transform="translate(-683.000000, -644.000000)" fill="#A7AABE">
            <g id="content-+-header-+-Macbook-Space-Grey" sketch:type="MSLayerGroup" transform="translate(-480.000000, 102.000000)">
                <g id="content" transform="translate(1002.000000, 153.000000)" sketch:type="MSShapeGroup">
                    <g id="---------+-Available-for--+-penguin-flat" transform="translate(13.000000, 388.000000)">
                        <g id="win" transform="translate(148.000000, 1.000000)">
                            <path d="M16.8571429,0.857142857 L16.8571429,8.83258929 L7.74665179,8.83258929 L7.74665179,2.11272321 L16.8571429,0.857142857 Z" id="Path"></path>
                            <path d="M16.8571429,9.67633929 L16.8571429,17.5714286 L7.74665179,16.3158482 L7.74665179,9.67633929 L16.8571429,9.67633929 Z" id="Path"></path>
                            <path d="M6.99330357,2.21316964 L6.99330357,8.83258929 L0.142857143,8.83258929 L0.142857143,3.15736607 L6.99330357,2.21316964 Z" id="Path"></path>
                            <path d="M6.99330357,9.67633929 L6.99330357,16.2154018 L0.142857143,15.2712054 L0.142857143,9.67633929 L6.99330357,9.67633929 Z" id="Path"></path>
                        </g>
                    </g>
                </g>
            </g>
        </g>
    </g>
</svg>

<svg width="17" height="18" viewBox="0 0 17 18" xmlns="http://www.w3.org/2000/svg"><title>win</title><g fill="#A7AABE" fill-rule="evenodd"><path d="M16.857.857v7.976h-9.11v-6.72l9.11-1.256zM16.857 9.676v7.895l-9.11-1.254v-6.64h9.11zM6.993 2.213v6.62H.143V3.157l6.85-.944zM6.993 9.676v6.54l-6.85-.945V9.677h6.85z"/></g></svg>
